packages/core/src/svgs/tokens/branded/SOULS.svg

<svg width="24" height="24" viewBox="0 0 24 24" fill="none" xmlns="http://www.w3.org/2000/svg">
<path d="M10.4278 10.7048C10.2221 10.0761 10.4506 9.24732 10.5879 8.9101L9.54764 9.2816C9.17039 10.3333 8.4045 12.4709 8.38735 12.5738C8.37022 12.6766 9.8505 15.8487 10.5879 17.4206C11.0737 17.152 12.2682 16.7575 13.1655 17.3233C14.0629 17.8949 13.7714 19.0724 13.5142 19.5868L14.4058 19.1009C14.4802 19.0552 15.326 18.3122 15.7375 17.9407L13.3485 11.0992C11.8624 11.9336 10.6794 11.4993 10.4278 10.7048Z" fill="url(#paint0_linear_364_11560)"/>
<path d="M9.34788 6.6296C10.891 5.4522 11.9484 2.81733 11.9484 2C12.2285 2.41153 12.7886 3.6918 12.7886 5.54365C12.779 6.22977 12.5931 6.90191 12.2489 7.49547C11.9046 8.08903 11.4134 8.58405 10.8225 8.93296C10.3309 9.33305 9.34788 10.299 9.34788 10.9906C9.34788 11.8536 9.89079 12.5223 10.9482 12.5223C11.9942 12.5223 14.1489 10.0818 14.389 9.81887L14.3947 9.81317C14.6005 9.58454 15.6063 8.38428 16.5665 8.38428C17.3382 8.38428 18.0183 9.01298 18.2641 9.32734C18.8414 10.0704 20.0017 12.0594 20.0017 14.0026C20.0017 17.8435 17.8755 19.9639 15.8979 21.0784C14.3204 21.9644 11.9255 22.0501 10.9253 21.9816L13.2687 19.5468C13.7659 19.1524 14.7491 18.1978 14.7491 17.5291C14.7491 16.6889 14.3147 16.0203 13.0744 16.0203C11.8399 16.0203 10.5996 17.8034 9.71369 18.7866C8.82203 19.7754 8.01613 20.0897 7.69034 20.0897C7.37027 20.0897 6.28432 20.2612 5.02119 17.8034C4.01524 15.8373 3.93523 14.6714 4.02667 14.3399C4.02667 9.32162 7.416 8.09279 9.34788 6.62389V6.6296Z" fill="url(#paint1_linear_364_11560)"/>
<path d="M6.62721 10.2875C7.48455 8.25852 10.4281 6.45812 11.7941 5.81227C11.7941 6.82392 8.85628 9.68741 8.85628 11.4135C8.85628 13.1281 9.27922 13.5397 11.0167 13.5397C12.7543 13.5397 13.9317 11.6878 14.509 11.0419C15.0919 10.3961 16.0008 9.68741 16.7837 9.68741C17.5611 9.68741 19.0528 10.419 19.0528 14.3569C19.0528 18.3007 16.0008 20.4955 15.0691 20.8156C14.1317 21.1414 13.3315 20.7984 14.1546 20.3869C14.9776 19.9811 16.0008 18.7751 16.0008 17.0319C16.0008 15.2829 15.3549 14.3569 13.9317 14.3569C12.5028 14.3569 11.2397 15.7172 10.3709 16.5746C9.50214 17.4376 8.54193 18.7751 7.65601 18.7751C6.76439 18.7751 6.05566 17.5463 5.74131 16.2088C5.42695 14.8771 5.56412 12.8366 6.63293 10.2932L6.62721 10.2875Z" fill="url(#paint2_linear_364_11560)"/>
<defs>
<linearGradient id="paint0_linear_364_11560" x1="6.57425" y1="5.28694" x2="12.3773" y2="19.2494" gradientUnits="userSpaceOnUse">
<stop stop-color="#8976FF"/>
<stop offset="1" stop-color="#662D91"/>
</linearGradient>
<linearGradient id="paint1_linear_364_11560" x1="4.7354" y1="10.1389" x2="19.5216" y2="18.1007" gradientUnits="userSpaceOnUse">
<stop stop-color="#00FFFF"/>
<stop offset="0.55" stop-color="#25DBFF"/>
<stop offset="1" stop-color="#7788FF"/>
</linearGradient>
<linearGradient id="paint2_linear_364_11560" x1="9.14817" y1="7.08154" x2="16.8927" y2="15.7578" gradientUnits="userSpaceOnUse">
<stop stop-color="#62FFFF"/>
<stop offset="0.55" stop-color="#85E7FF"/>
<stop offset="1" stop-color="#D0F0FF"/>
</linearGradient>
</defs>
</svg>

<svg xmlns="http://www.w3.org/2000/svg" width="24" height="24" fill="none" viewBox="0 0 24 24">
    <path fill="url(#SOULS__a)" d="M10.428 10.705c-.206-.629.023-1.458.16-1.795l-1.04.372c-.378 1.051-1.143 3.189-1.16 3.292-.018.103 1.463 3.275 2.2 4.847.486-.269 1.68-.663 2.578-.098.897.572.605 1.75.348 2.264l.892-.486c.074-.046.92-.789 1.332-1.16l-2.39-6.842c-1.486.835-2.669.4-2.92-.394"/>
    <path fill="url(#SOULS__b)" d="M9.348 6.63c1.543-1.178 2.6-3.813 2.6-4.63.28.412.84 1.692.84 3.544a4 4 0 0 1-1.966 3.389c-.491.4-1.474 1.366-1.474 2.058 0 .863.543 1.531 1.6 1.531 1.046 0 3.2-2.44 3.441-2.703l.006-.006c.206-.228 1.211-1.429 2.172-1.429.771 0 1.451.629 1.697.943.577.743 1.738 2.732 1.738 4.676 0 3.84-2.126 5.96-4.104 7.075-1.578.886-3.972.972-4.973.904l2.344-2.435c.497-.395 1.48-1.35 1.48-2.018 0-.84-.434-1.509-1.675-1.509-1.234 0-2.474 1.783-3.36 2.767-.892.988-1.698 1.303-2.024 1.303-.32 0-1.406.171-2.669-2.287-1.006-1.966-1.086-3.132-.994-3.463 0-5.018 3.389-6.247 5.32-7.716z"/>
    <path fill="url(#SOULS__c)" d="M6.627 10.288c.858-2.03 3.801-3.83 5.167-4.476 0 1.012-2.938 3.875-2.938 5.602 0 1.714.423 2.126 2.16 2.126s2.916-1.852 3.493-2.498c.583-.646 1.492-1.355 2.275-1.355.777 0 2.269.732 2.269 4.67 0 3.944-3.052 6.139-3.984 6.459-.937.325-1.738-.018-.914-.43.823-.405 1.846-1.61 1.846-3.354 0-1.75-.646-2.675-2.07-2.675-1.428 0-2.691 1.36-3.56 2.218-.869.863-1.83 2.2-2.715 2.2-.892 0-1.6-1.229-1.915-2.566-.314-1.332-.177-3.372.892-5.916z"/>
    <defs>
        <linearGradient id="SOULS__a" x1="6.574" x2="12.377" y1="5.287" y2="19.249" gradientUnits="userSpaceOnUse">
            <stop stop-color="#8976FF"/>
            <stop offset="1" stop-color="#662D91"/>
        </linearGradient>
        <linearGradient id="SOULS__b" x1="4.735" x2="19.522" y1="10.139" y2="18.101" gradientUnits="userSpaceOnUse">
            <stop stop-color="#0FF"/>
            <stop offset=".55" stop-color="#25DBFF"/>
            <stop offset="1" stop-color="#78F"/>
        </linearGradient>
        <linearGradient id="SOULS__c" x1="9.148" x2="16.893" y1="7.082" y2="15.758" gradientUnits="userSpaceOnUse">
            <stop stop-color="#62FFFF"/>
            <stop offset=".55" stop-color="#85E7FF"/>
            <stop offset="1" stop-color="#D0F0FF"/>
        </linearGradient>
    </defs>
</svg>
